X: 32771
T: Polygon, The
R: polka
M: 2/4
K: Gmajor
GG/A/ BB/c/|de d>c|BG AF|G/A/B A2|
GG/A/ BB/c/|de d>c|BG DF|G2 G2:|
|:c2 BG|A2 GA/B/|c2 BG|AF G2|
cc BG|AA GA/B/|cc BG|1 DF G2:|2 EF G2||

